cssgg/bmw.svg

<svg
  width="24"
  height="24"
  viewBox="0 0 24 24"
  fill="none"
  xmlns="http://www.w3.org/2000/svg"
>
  <path
    fill-rule="evenodd"
    clip-rule="evenodd"
    d="M21 12C21 16.9706 16.9706 21 12 21C7.02944 21 3 16.9706 3 12C3 7.02944 7.02944 3 12 3C16.9706 3 21 7.02944 21 12ZM5 12C5 15.866 8.13401 19 12 19V12H19C19 8.13401 15.866 5 12 5V12H5Z"
    fill="currentColor"
  />
</svg>

<svg viewBox="0 0 24 24" xmlns="http://www.w3.org/2000/svg"><path fill-rule="evenodd" d="M21 12c0 4.97-4.03 9-9 9 -4.98 0-9-4.03-9-9 0-4.98 4.02-9 9-9 4.97 0 9 4.02 9 9ZM5 12c0 3.86 3.13 7 7 7v-7h7c0-3.87-3.14-7-7-7v7H5Z"/></svg>
